src/icons/msplanner.svg

<?xml version="1.0" encoding="UTF-8"?>
<svg xmlns="http://www.w3.org/2000/svg" xmlns:xlink="http://www.w3.org/1999/xlink" width="28.8" height="32" viewBox="0 0 28.8 32" version="1.1">
<g id="surface1">
<path style=" stroke:none;fill-rule:nonzero;fill:rgb(9.411765%,36.078432%,21.568628%);fill-opacity:1;" d="M 8.15625 32 L 1.445312 32 C 0.644531 32 0 31.355469 0 30.554688 L 0 15.519531 L 5.066406 14.027344 L 9.601562 15.519531 L 9.601562 30.554688 C 9.601562 31.355469 8.953125 32 8.15625 32 Z M 8.15625 32 "/>
<path style=" stroke:none;fill-rule:nonzero;fill:rgb(20%,76.862746%,50.588238%);fill-opacity:1;" d="M 18.558594 0 L 27.308594 0 C 28.132812 0 28.800781 0.667969 28.800781 1.492188 L 28.800781 18.988281 C 28.800781 19.8125 28.132812 20.480469 27.308594 20.480469 L 18.558594 20.480469 L 16.851562 9.546875 Z M 18.558594 0 "/>
<path style=" stroke:none;fill-rule:nonzero;fill:rgb(6.27451%,48.627451%,25.490198%);fill-opacity:1;" d="M 0 1.492188 L 0 16 L 9.601562 16 L 9.601562 26.238281 L 17.707031 26.238281 C 18.53125 26.238281 19.199219 25.574219 19.199219 24.75 L 19.199219 0 L 1.492188 0 C 0.667969 0 0 0.667969 0 1.492188 Z M 0 1.492188 "/>
<path style=" stroke:none;fill-rule:nonzero;fill:rgb(12.941177%,63.921571%,40.000001%);fill-opacity:1;" d="M 9.601562 0 L 19.199219 0 L 19.199219 10.878906 L 9.601562 10.878906 Z M 9.601562 0 "/>
</g>
</svg>

<svg role="img" viewBox="0 0 28.8 32" xmlns="http://www.w3.org/2000/svg"><path d="M8.156 32h-6.71A1.442 1.442 0 0 1 0 30.555V15.52l5.066-1.493 4.536 1.493v15.035c0 .8-.649 1.445-1.446 1.445m0 0" style="stroke:none;fill-rule:nonzero;fill:rgb(9.411765%,36.078432%,21.568628%);fill-opacity:1"/><path d="M18.559 0h8.75c.824 0 1.492.668 1.492 1.492v17.496c0 .825-.668 1.492-1.492 1.492h-8.75L16.852 9.547Zm0 0" style="stroke:none;fill-rule:nonzero;fill:rgb(20%,76.862746%,50.588238%);fill-opacity:1"/><path d="M0 1.492V16h9.602v10.238h8.105c.824 0 1.492-.664 1.492-1.488V0H1.492C.668 0 0 .668 0 1.492m0 0" style="stroke:none;fill-rule:nonzero;fill:rgb(6.27451%,48.627451%,25.490198%);fill-opacity:1"/><path d="M9.602 0h9.597v10.879H9.602Zm0 0" style="stroke:none;fill-rule:nonzero;fill:rgb(12.941177%,63.921571%,40.000001%);fill-opacity:1"/></svg>
